icons/svg/24x24/camera/outline.svg

<svg width="24" height="24" fill="none" xmlns="http://www.w3.org/2000/svg">
  <path fill-rule="evenodd" clip-rule="evenodd" d="M12 9a4 4 0 100 8 4 4 0 000-8zm0 2c1.103 0 2 .897 2 2s-.897 2-2 2-2-.897-2-2 .897-2 2-2zm2.465-8h-4.93c-.334 0-.646.167-.832.445L7 6c-.873.074-1.793.233-2.603.403A3.004 3.004 0 002 9.344v8.16c0 1.485 1.08 2.75 2.55 2.967A51.56 51.56 0 0012 21c3.116 0 5.693-.27 7.45-.529A2.992 2.992 0 0022 17.504v-8.16a3.004 3.004 0 00-2.397-2.941c-.81-.17-1.73-.329-2.603-.403l-1.703-2.555A1.001 1.001 0 0014.465 3zm-.535 2l1.406 2.109.534.801.959.083c.681.058 1.476.182 2.363.367.476.1.808.504.808.984v8.16a.986.986 0 01-.842.988A49.646 49.646 0 0112 19c-3.073 0-5.589-.276-7.158-.508A.986.986 0 014 17.504v-8.16c0-.48.332-.884.808-.984a20.222 20.222 0 012.363-.367l.959-.083.534-.801L10.07 5h3.86z" fill="#000"/>
</svg>

<svg xmlns="http://www.w3.org/2000/svg" width="24" height="24" viewBox="0 0 24 24">
  <path fill-rule="evenodd" d="M12,9 C9.791,9 8,10.791 8,13 C8,15.209 9.791,17 12,17 C14.209,17 16,15.209 16,13 C16,10.791 14.209,9 12,9 M12,11 C13.103,11 14,11.897 14,13 C14,14.103 13.103,15 12,15 C10.897,15 10,14.103 10,13 C10,11.897 10.897,11 12,11 M14.465,3 L12,3 L9.535,3 C9.201,3 8.889,3.167 8.703,3.445 L7,6 C6.127,6.074 5.207,6.233 4.397,6.403 C3.001,6.695 2,7.917 2,9.344 L2,17.504 C2,18.989 3.08,20.254 4.55,20.471 C6.307,20.73 8.884,21 12,21 C15.116,21 17.693,20.73 19.45,20.471 C20.92,20.254 22,18.989 22,17.504 L22,9.344 C22,7.917 20.999,6.695 19.603,6.403 C18.793,6.233 17.873,6.074 17,6 L15.297,3.445 C15.111,3.167 14.799,3 14.465,3 M13.93,5 L15.336,7.109 L15.87,7.91 L16.829,7.993 C17.51,8.051 18.305,8.175 19.192,8.36 C19.668,8.46 20,8.864 20,9.344 L20,17.504 C20,18.005 19.646,18.42 19.158,18.492 C17.589,18.724 15.073,19 12,19 C8.927,19 6.411,18.724 4.842,18.492 C4.354,18.42 4,18.005 4,17.504 L4,9.344 C4,8.864 4.332,8.46 4.808,8.36 C5.695,8.175 6.49,8.051 7.171,7.993 L8.13,7.91 L8.664,7.109 L10.07,5 L12,5 L13.93,5"/>
</svg>
